flaticon/stationery/earth-globe.svg

<svg xmlns="http://www.w3.org/2000/svg" width="32" height="32" viewBox="0 0 24 24">
    <path d="M 7.050781 15.460938 C 8.253906 16.15625 9.621094 16.523438 11.003906 16.523438 C 12.394531 16.523438 13.773438 16.15625 14.980469 15.457031 C 16.191406 14.761719 17.199219 13.757812 17.894531 12.554688 C 18.585938 11.355469 18.953125 9.980469 18.953125 8.585938 C 18.945312 5.753906 17.429688 3.125 14.988281 1.714844 C 12.574219 0.324219 9.472656 0.332031 7.066406 1.714844 C 7.0625 1.714844 7.0625 1.714844 7.058594 1.71875 C 5.847656 2.414062 4.839844 3.417969 4.148438 4.621094 C 3.453125 5.820312 3.085938 7.195312 3.089844 8.59375 C 3.09375 11.421875 4.613281 14.050781 7.050781 15.460938 Z M 7.5625 14.574219 C 6.761719 14.109375 6.425781 12.765625 6.730469 10.988281 L 11.085938 13.503906 C 10.132812 14.304688 9.167969 14.769531 8.347656 14.769531 C 8.050781 14.769531 7.789062 14.703125 7.5625 14.574219 Z M 13.527344 10.625 C 13.019531 11.4375 12.453125 12.164062 11.867188 12.773438 L 9.445312 11.371094 L 6.96875 9.945312 C 7.195312 9.15625 7.535156 8.308594 8 7.4375 Z M 8.511719 6.550781 C 9.019531 5.738281 9.585938 5.011719 10.171875 4.402344 L 11.964844 5.4375 L 15.066406 7.230469 C 14.832031 8.050781 14.484375 8.902344 14.039062 9.738281 Z M 11.003906 15.5 C 10.65625 15.5 10.308594 15.472656 9.964844 15.417969 C 10.644531 15.117188 11.34375 14.652344 12.019531 14.042969 L 13.640625 14.976562 C 12.804688 15.320312 11.90625 15.5 11.003906 15.5 Z M 14.722656 14.417969 L 12.777344 13.296875 C 13.359375 12.671875 13.914062 11.945312 14.414062 11.140625 L 16.734375 12.476562 C 16.207031 13.253906 15.519531 13.914062 14.722656 14.417969 Z M 16.410156 4.265625 C 17.183594 5.238281 17.691406 6.410156 17.863281 7.660156 L 16.246094 6.726562 C 16.339844 6.265625 16.402344 5.816406 16.429688 5.386719 C 16.453125 4.988281 16.445312 4.613281 16.410156 4.265625 Z M 17.921875 8.878906 C 17.882812 9.820312 17.652344 10.746094 17.246094 11.589844 L 14.925781 10.253906 C 15.371094 9.425781 15.722656 8.582031 15.976562 7.753906 Z M 14.476562 2.601562 C 15.148438 2.988281 15.488281 3.980469 15.40625 5.324219 C 15.390625 5.601562 15.355469 5.890625 15.308594 6.183594 L 10.953125 3.671875 C 11.910156 2.871094 12.875 2.40625 13.695312 2.40625 C 13.988281 2.40625 14.25 2.472656 14.476562 2.601562 Z M 12.058594 1.765625 C 11.382812 2.066406 10.691406 2.53125 10.019531 3.132812 L 8.402344 2.199219 C 9.554688 1.726562 10.828125 1.582031 12.058594 1.765625 Z M 7.320312 2.757812 L 9.261719 3.878906 C 8.679688 4.503906 8.125 5.230469 7.625 6.035156 L 5.308594 4.699219 C 5.835938 3.921875 6.523438 3.261719 7.320312 2.757812 Z M 4.796875 5.585938 L 7.113281 6.921875 C 6.664062 7.765625 6.3125 8.609375 6.0625 9.421875 L 4.121094 8.300781 C 4.15625 7.355469 4.386719 6.429688 4.796875 5.585938 Z M 5.796875 10.449219 C 5.609375 11.34375 5.554688 12.179688 5.636719 12.914062 C 4.859375 11.945312 4.347656 10.769531 4.175781 9.515625 Z M 5.796875 10.449219"/>
    <path d="M 15.980469 0 L 15.464844 0.886719 C 21.515625 4.585938 20.242188 10.78125 18.722656 13.035156 C 17.21875 15.261719 13.5 19.53125 6.574219 16.289062 L 6.0625 17.175781 C 7.074219 17.757812 8.15625 18.152344 9.269531 18.351562 L 9.269531 19.972656 C 7.671875 20.09375 4.378906 20.511719 4.378906 21.957031 C 4.378906 23.570312 8.554688 24 11.019531 24 C 13.488281 24 17.664062 23.570312 17.664062 21.957031 C 17.664062 20.511719 14.367188 20.09375 12.769531 19.972656 L 12.769531 18.347656 C 13.042969 18.296875 16.964844 17.859375 19.609375 13.546875 C 20.882812 11.46875 22.9375 4.363281 15.980469 0 Z M 16.621094 21.957031 C 16.328125 22.339844 14.316406 22.976562 11.019531 22.976562 C 7.722656 22.976562 5.710938 22.339844 5.421875 21.957031 C 5.652344 21.660156 7.085938 21.105469 9.808594 20.964844 C 10.082031 20.953125 10.296875 20.726562 10.296875 20.453125 L 10.296875 18.480469 C 10.53125 18.5 10.769531 18.507812 11.003906 18.507812 C 11.25 18.507812 11.5 18.5 11.746094 18.480469 L 11.746094 20.453125 C 11.746094 20.726562 11.960938 20.953125 12.230469 20.964844 C 14.957031 21.105469 16.386719 21.660156 16.621094 21.957031 Z M 16.621094 21.957031"/>
</svg>

<svg xmlns="http://www.w3.org/2000/svg" width="32" height="32" viewBox="0 0 24 24">
    <path d="M7.05 15.46a7.912 7.912 0 0 0 7.93-.003 7.927 7.927 0 0 0 2.915-2.902 7.963 7.963 0 0 0 1.058-3.97 7.971 7.971 0 0 0-3.965-6.87c-2.414-1.39-5.515-1.383-7.922 0-.003 0-.003 0-.007.004a7.888 7.888 0 0 0-2.91 2.902 7.887 7.887 0 0 0-1.06 3.973 7.966 7.966 0 0 0 3.962 6.867zm.513-.886c-.801-.465-1.137-1.808-.833-3.586l4.356 2.516c-.953.8-1.918 1.266-2.738 1.266a1.56 1.56 0 0 1-.786-.196zm5.964-3.949a13.232 13.232 0 0 1-1.66 2.148l-2.422-1.402L6.97 9.945C7.195 9.156 7.535 8.31 8 7.437zM8.512 6.551a13.232 13.232 0 0 1 1.66-2.149l1.793 1.035 3.101 1.793c-.234.82-.582 1.672-1.027 2.508zm2.492 8.949c-.348 0-.695-.027-1.04-.082.68-.3 1.38-.766 2.056-1.375l1.62.934a6.946 6.946 0 0 1-2.636.523zm3.719-1.082l-1.946-1.121a14.064 14.064 0 0 0 1.637-2.156l2.32 1.336a6.858 6.858 0 0 1-2.011 1.941zM16.41 4.266a6.988 6.988 0 0 1 1.453 3.394l-1.617-.933c.094-.461.156-.91.184-1.34a7.05 7.05 0 0 0-.02-1.121zm1.512 4.613a6.92 6.92 0 0 1-.676 2.71l-2.32-1.335a13.92 13.92 0 0 0 1.05-2.5zm-3.445-6.277c.671.386 1.011 1.378.93 2.722-.016.278-.052.567-.098.86l-4.356-2.512c.957-.8 1.922-1.266 2.742-1.266.293 0 .555.067.782.196zm-2.418-.836c-.676.3-1.368.765-2.04 1.367l-1.617-.934a6.961 6.961 0 0 1 3.657-.433zm-4.739.992l1.942 1.12a14.064 14.064 0 0 0-1.637 2.157L5.309 4.7A6.858 6.858 0 0 1 7.32 2.758zM4.797 5.586l2.316 1.336c-.449.844-.8 1.687-1.05 2.5L4.12 8.3a6.79 6.79 0 0 1 .676-2.715zm1 4.863c-.188.895-.242 1.73-.16 2.465a6.945 6.945 0 0 1-1.461-3.398zm0 0"/>
    <path d="M15.98 0l-.515.887c6.05 3.699 4.777 9.894 3.258 12.148-1.504 2.227-5.223 6.496-12.149 3.254l-.511.887a9.935 9.935 0 0 0 3.207 1.176v1.62c-1.598.122-4.891.54-4.891 1.985 0 1.613 4.176 2.043 6.64 2.043 2.47 0 6.645-.43 6.645-2.043 0-1.445-3.297-1.863-4.894-1.984v-1.625c.273-.051 4.195-.489 6.84-4.801C20.882 11.469 22.937 4.363 15.98 0zm.641 21.957c-.293.383-2.305 1.02-5.601 1.02-3.297 0-5.31-.637-5.598-1.02.23-.297 1.664-.852 4.387-.992a.512.512 0 0 0 .488-.512V18.48a9.424 9.424 0 0 0 1.45 0v1.973c0 .274.214.5.483.512 2.727.14 4.157.695 4.391.992zm0 0"/>
</svg>
